assets/Trumpet/Flat/trumpet_flat.svg

<svg width="32" height="32" viewBox="0 0 32 32" fill="none" xmlns="http://www.w3.org/2000/svg">
<path d="M14.233 12.5746L15.193 11.7146C15.383 11.5346 15.693 11.5546 15.873 11.7446L24.743 21.5446C25.163 22.0046 25.123 22.7146 24.663 23.1346C24.203 23.5546 23.493 23.5146 23.073 23.0546L14.203 13.2546C14.023 13.0546 14.033 12.7546 14.233 12.5746ZM12.0929 14.5146L11.1329 15.3746C10.9329 15.5546 10.9229 15.8546 11.1029 16.0546L12.3968 17.4842C11.9765 17.4064 11.5243 17.5184 11.1829 17.8245L10.5864 18.3638L9.67289 17.3546C9.49289 17.1546 9.19289 17.1445 8.99289 17.3245L8.0329 18.1846C7.83289 18.3646 7.82289 18.6646 8.00289 18.8646L8.9162 19.8736L3.68292 24.6045C3.10292 25.1245 3.06292 26.0245 3.58292 26.6045C4.10292 27.1845 5.00292 27.2245 5.58292 26.7045L10.8166 21.9733L16.8729 28.6646C17.2929 29.1245 18.0029 29.1645 18.4629 28.7445C18.9229 28.3246 18.9629 27.6145 18.5429 27.1545L12.4868 20.4634L13.0829 19.9245C13.4258 19.6171 13.5799 19.177 13.5413 18.7487L19.9729 25.8546C20.3929 26.3146 21.1029 26.3546 21.5629 25.9346C22.0229 25.5146 22.0629 24.8046 21.6429 24.3446L12.7729 14.5446C12.5929 14.3546 12.2929 14.3446 12.0929 14.5146Z" fill="#E19747"/>
<path d="M22.0144 2.86454L22.1044 4.74454C22.1444 5.57454 21.7044 6.94454 21.3344 7.91454C21.0744 8.62454 20.6444 9.25454 20.0844 9.76454L16.0344 13.4345L12.3444 16.7745L9.69439 19.1745C7.29439 21.3445 7.10439 25.0645 9.28439 27.4645C11.4644 29.8645 15.1744 30.0545 17.5744 27.8745L23.9144 22.1345C26.3144 19.9645 26.5044 16.2445 24.3244 13.8445C23.5744 13.0245 22.6544 12.4545 21.6544 12.1645L21.9944 11.8645C22.5544 11.3645 23.2244 10.9945 23.9444 10.8045C24.9344 10.5445 26.3244 10.2445 27.1444 10.3645L29.0544 10.6445C29.8144 10.7545 30.3044 9.85454 29.7844 9.27454L23.4444 2.26454C22.9244 1.70454 21.9744 2.09454 22.0144 2.86454ZM22.2244 15.7545C23.3444 16.9945 23.2544 18.9245 22.0144 20.0445L15.6744 25.7845C14.4344 26.9045 12.5044 26.8145 11.3844 25.5745C10.2644 24.3345 10.3544 22.4045 11.5944 21.2845L14.2244 18.9045L17.9344 15.5445C19.1744 14.4145 21.1044 14.5145 22.2244 15.7545Z" fill="#FFB02E"/>
<path d="M14.7529 10.6945L13.2629 12.0445C12.9629 12.3145 12.9429 12.7845 13.2129 13.0845C13.4829 13.3845 13.9529 13.4045 14.2529 13.1345L15.7429 11.7845C16.0429 11.5145 16.0629 11.0445 15.7929 10.7445C15.5229 10.4445 15.0629 10.4145 14.7529 10.6945ZM10.1729 14.8445L11.6629 13.4945C11.9629 13.2245 12.4229 13.2445 12.7029 13.5445C12.9729 13.8445 12.9529 14.3145 12.6529 14.5845L11.1629 15.9345C10.8629 16.2045 10.3929 16.1845 10.1229 15.8845C9.85291 15.5845 9.87291 15.1145 10.1729 14.8445ZM7.07293 17.6445L8.56293 16.2945C8.86293 16.0245 9.32293 16.0445 9.60293 16.3445C9.87293 16.6445 9.85293 17.1145 9.55293 17.3845L8.06293 18.7345C7.76293 19.0045 7.29293 18.9845 7.02293 18.6845C6.75293 18.3845 6.77293 17.9145 7.07293 17.6445ZM2.31292 25.9646C1.86292 25.4746 1.90292 24.7046 2.40292 24.2546C2.90292 23.8046 3.66292 23.8446 4.11292 24.3446L5.89292 26.3146C6.34292 26.8046 6.30292 27.5746 5.80292 28.0246C5.31292 28.4746 4.54292 28.4346 4.09292 27.9346L2.31292 25.9646Z" fill="#D3D3D3"/>
<path d="M22.2229 15.7546L24.3229 13.8546C23.5729 13.0346 22.6529 12.4646 21.6529 12.1746L17.9329 15.5446C19.1729 14.4146 21.1029 14.5146 22.2229 15.7546Z" fill="#E19747"/>
</svg>

<svg xmlns="http://www.w3.org/2000/svg" width="32" height="32" fill="none"><path fill="#E19747" d="m14.233 12.575.96-.86c.19-.18.5-.16.68.03l8.87 9.8c.42.46.38 1.17-.08 1.59-.46.42-1.17.38-1.59-.08l-8.87-9.8c-.18-.2-.17-.5.03-.68Zm-2.14 1.94-.96.86c-.2.18-.21.48-.03.68l1.294 1.43a1.428 1.428 0 0 0-1.214.34l-.597.539-.913-1.01a.477.477 0 0 0-.68-.03l-.96.86c-.2.18-.21.48-.03.68l.913 1.01-5.233 4.73a1.42 1.42 0 0 0-.1 2c.52.58 1.42.62 2 .1l5.234-4.73 6.056 6.69c.42.46 1.13.5 1.59.08.46-.42.5-1.13.08-1.59l-6.056-6.69.596-.54c.343-.307.497-.747.458-1.175l6.432 7.106c.42.46 1.13.5 1.59.08.46-.42.5-1.13.08-1.59l-8.87-9.8a.496.496 0 0 0-.68-.03Z"/><path fill="#FFB02E" d="m22.014 2.865.09 1.88c.04.83-.4 2.2-.77 3.17-.26.71-.69 1.34-1.25 1.85l-4.05 3.67-3.69 3.34-2.65 2.4a5.868 5.868 0 0 0-.41 8.29c2.18 2.4 5.89 2.59 8.29.41l6.34-5.74a5.868 5.868 0 0 0-2.26-9.97l.34-.3c.56-.5 1.23-.87 1.95-1.06.99-.26 2.38-.56 3.2-.44l1.91.28c.76.11 1.25-.79.73-1.37l-6.34-7.01c-.52-.56-1.47-.17-1.43.6Zm.21 12.89c1.12 1.24 1.03 3.17-.21 4.29l-6.34 5.74c-1.24 1.12-3.17 1.03-4.29-.21s-1.03-3.17.21-4.29l2.63-2.38 3.71-3.36a3.036 3.036 0 0 1 4.29.21Z"/><path fill="#D3D3D3" d="m14.753 10.694-1.49 1.35a.74.74 0 0 0-.05 1.04c.27.3.74.32 1.04.05l1.49-1.35c.3-.27.32-.74.05-1.04a.73.73 0 0 0-1.04-.05Zm-4.58 4.15 1.49-1.35a.74.74 0 0 1 1.04.05c.27.3.25.77-.05 1.04l-1.49 1.35a.74.74 0 0 1-1.04-.05.74.74 0 0 1 .05-1.04Zm-3.1 2.8 1.49-1.35a.74.74 0 0 1 1.04.05c.27.3.25.77-.05 1.04l-1.49 1.35a.74.74 0 0 1-1.04-.05.74.74 0 0 1 .05-1.04Zm-4.76 8.32c-.45-.49-.41-1.26.09-1.71.5-.45 1.26-.41 1.71.09l1.78 1.97c.45.49.41 1.26-.09 1.71-.49.45-1.26.41-1.71-.09l-1.78-1.97Z"/><path fill="#E19747" d="m22.223 15.755 2.1-1.9a5.81 5.81 0 0 0-2.67-1.68l-3.72 3.37a3.036 3.036 0 0 1 4.29.21Z"/></svg>
